chains/soon/logo.svg

<svg fill="none" xmlns="http://www.w3.org/2000/svg" viewBox="44.84 10.17 50.36 49.61"> <path d="M52.0596 17.2873C43.6941 25.5271 42.711 37.9391 48.5038 47.4256C49.434 48.949 51.5522 49.0625 52.8284 47.8055L54.8219 45.8419C55.876 44.8036 55.9779 43.174 55.2714 41.881C51.9183 35.7443 52.4433 28.2461 57.7495 23.0197C63.0595 17.7895 70.7831 17.1734 77.0567 20.444C78.3698 21.1285 80.0172 21.0253 81.0678 19.9906L83.0435 18.0445C84.3197 16.7875 84.2045 14.7011 82.6579 13.7849C73.0266 8.07921 60.4252 9.04752 52.0596 17.2873Z" fill="#C40D3B"></path> <path opacity="0.6" d="M85.2273 24.0471C84.1735 25.0851 84.0719 26.7141 84.7724 28.0098C88.1306 34.2209 87.4499 41.867 82.1671 47.0704C76.8893 52.2688 69.2269 52.818 62.976 49.4941C61.6613 48.7949 60.0022 48.8931 58.9456 49.9337L56.9531 51.8963C55.6797 53.1506 55.791 55.2319 57.3316 56.1505C66.9673 61.8959 79.5905 60.881 87.9545 52.6427C96.3186 44.4044 97.3489 31.9709 91.5159 22.4802C90.5833 20.9627 88.4702 20.853 87.1967 22.1073L85.2273 24.0471Z" fill="#C40D3B"></path> </svg>

<svg xmlns="http://www.w3.org/2000/svg" fill="none" viewBox="44.84 10.17 50.36 49.61"><path fill="#C40D3B" d="M52.06 17.287c-8.366 8.24-9.349 20.652-3.556 30.139.93 1.523 3.048 1.636 4.324.38l1.994-1.964c1.054-1.038 1.156-2.668.45-3.961-3.354-6.137-2.829-13.635 2.477-18.861 5.31-5.23 13.034-5.847 19.308-2.576 1.313.684 2.96.581 4.01-.453l1.977-1.947c1.276-1.256 1.16-3.343-.386-4.26-9.631-5.705-22.233-4.736-30.598 3.503"/><path fill="#C40D3B" d="M85.227 24.047c-1.053 1.038-1.155 2.667-.455 3.963 3.359 6.21 2.678 13.857-2.605 19.06-5.278 5.199-12.94 5.748-19.191 2.424-1.315-.7-2.974-.6-4.03.44l-1.993 1.962c-1.273 1.255-1.162 3.336.379 4.255 9.635 5.745 22.259 4.73 30.622-3.508 8.365-8.239 9.395-20.672 3.562-30.163-.933-1.517-3.046-1.627-4.32-.373z" opacity=".6"/></svg>
